src/pos-icons/flash-alert-outline.svg

<svg height="24" viewBox="0 0 24 24" width="24" xmlns="http://www.w3.org/2000/svg"><path d="m5 2h10l-3.5 7h3.5l-7 13v-8h-3zm2 2v8h3v2.66l2-3.66h-3.76l3.52-7m5.24 11h2v2h-2zm0-8h2v6h-2z"/></svg>

<?xml version="1.0" encoding="UTF-8"?><!DOCTYPE svg PUBLIC "-//W3C//DTD SVG 1.1//EN" "http://www.w3.org/Graphics/SVG/1.1/DTD/svg11.dtd"><svg xmlns="http://www.w3.org/2000/svg" xmlns:xlink="http://www.w3.org/1999/xlink" version="1.1" id="mdi-flash-alert-outline" width="24" height="24" viewBox="0 0 24 24"><path d="M5,2H15L11.5,9H15L8,22V14H5V2M7,4V12H10V14.66L12,11H8.24L11.76,4M17,15H19V17H17V15M17,7H19V13H17V7Z" /></svg>
